Newaita-dark/actions/16/kt-speed-limits.svg

<?xml version="1.0" encoding="UTF-8"?>
<svg xmlns="http://www.w3.org/2000/svg" xmlns:xlink="http://www.w3.org/1999/xlink" width="16pt" height="16pt" viewBox="0 0 16 16" version="1.1">
<g id="surface1">
<path style=" stroke:none;fill-rule:nonzero;fill:rgb(74.117649%,74.117649%,74.117649%);fill-opacity:1;" d="M 6.171875 1 C 5.464844 1.175781 4.800781 1.453125 4.191406 1.816406 L 5.554688 4.089844 C 5.941406 3.855469 6.363281 3.679688 6.816406 3.570312 Z M 9.703125 1 L 9.0625 3.570312 C 9.511719 3.679688 9.9375 3.855469 10.324219 4.089844 L 11.683594 1.816406 C 11.078125 1.453125 10.410156 1.175781 9.703125 1 Z M 1.691406 4.316406 C 1.328125 4.925781 1.050781 5.589844 0.875 6.296875 L 3.445312 6.941406 C 3.554688 6.488281 3.730469 6.066406 3.964844 5.679688 Z M 14.183594 4.316406 L 11.914062 5.679688 C 12.144531 6.066406 12.320312 6.488281 12.433594 6.941406 L 15 6.296875 C 14.824219 5.589844 14.546875 4.925781 14.183594 4.316406 Z M 3.445312 9.1875 L 0.875 9.828125 C 1.050781 10.535156 1.328125 11.203125 1.691406 11.808594 L 3.964844 10.449219 C 3.730469 10.0625 3.554688 9.636719 3.445312 9.1875 Z M 12.433594 9.1875 C 12.320312 9.636719 12.144531 10.0625 11.914062 10.449219 L 14.183594 11.808594 C 14.546875 11.203125 14.824219 10.535156 15 9.828125 Z M 12.433594 9.1875 "/>
<path style=" stroke:none;fill-rule:nonzero;fill:rgb(93.725491%,32.549021%,31.37255%);fill-opacity:1;" d="M 5.117188 6.695312 L 6.621094 8.800781 C 6.546875 9.214844 6.667969 9.652344 6.988281 9.972656 C 7.507812 10.488281 8.339844 10.488281 8.859375 9.972656 C 9.378906 9.453125 9.378906 8.617188 8.859375 8.101562 C 8.539062 7.78125 8.101562 7.660156 7.691406 7.734375 L 5.585938 6.230469 Z M 5.117188 6.695312 "/>
</g>
</svg>

<svg xmlns="http://www.w3.org/2000/svg" width="16pt" height="16pt" viewBox="0 0 16 16"><path d="M6.172 1a7.303 7.303 0 0 0-1.98.816L5.554 4.09c.386-.235.808-.41 1.261-.52zm3.531 0l-.64 2.57c.449.11.874.285 1.261.52l1.36-2.274A7.252 7.252 0 0 0 9.704 1zM1.691 4.316a7.303 7.303 0 0 0-.816 1.98l2.57.645c.11-.453.285-.875.52-1.261zm12.493 0l-2.27 1.364c.23.386.406.808.52 1.261L15 6.297a7.303 7.303 0 0 0-.816-1.98zM3.445 9.188l-2.57.64c.176.707.453 1.375.816 1.98l2.274-1.359a4.479 4.479 0 0 1-.52-1.261zm8.989 0a4.72 4.72 0 0 1-.52 1.261l2.27 1.36c.363-.606.64-1.274.816-1.98zm0 0" fill="#bdbdbd"/><path d="M5.117 6.695l1.504 2.106A1.325 1.325 0 0 0 8.86 9.973c.52-.52.52-1.356 0-1.871a1.314 1.314 0 0 0-1.168-.368L5.586 6.23zm0 0" fill="#ef5350"/></svg>
